dist/img/blog/13.svg

<svg width="25" height="25" viewBox="0 0 25 25" fill="none" xmlns="http://www.w3.org/2000/svg">
<path d="M18.6106 6.08444V5.6414C18.6106 5.26541 18.3057 4.96019 17.9294 4.96019H17.6112C17.6066 4.80445 17.4792 4.67933 17.3223 4.67933H15.9021C15.7452 4.67933 15.6178 4.80444 15.6133 4.96019H15.0014L15.0016 2H9.99866V4.96019H9.38647C9.38212 4.80445 9.25475 4.67933 9.09771 4.67933H7.67744C7.52056 4.67933 7.39319 4.80444 7.38868 4.96019H7.07041C6.6941 4.96019 6.38921 5.26524 6.38921 5.6414V6.08444C6.17171 6.10089 6 6.27888 6 6.4959V19.6089C6 19.826 6.17155 20.004 6.38921 20.0206V20.4634C6.38921 20.8394 6.6941 21.1446 7.07041 21.1446H8.70205V21.5235C8.34235 21.6243 8.07888 21.9546 8.07888 22.3466C8.07888 22.8184 8.46148 23.2006 8.93323 23.2006C9.40517 23.2006 9.78774 22.8183 9.78774 22.3466C9.78774 21.9548 9.52397 21.6243 9.16458 21.5235V21.1446H15.8354V21.5235C15.4757 21.6243 15.2123 21.9546 15.2123 22.3466C15.2123 22.8184 15.5949 23.2006 16.0668 23.2006C16.5385 23.2006 16.9211 22.8183 16.9211 22.3466C16.9211 21.9548 16.6573 21.6243 16.2979 21.5235V21.1446H17.9296C18.3059 21.1446 18.6108 20.8396 18.6108 20.4634V20.0206C18.8283 20.004 19 19.826 19 19.6089L18.9998 6.4959C18.9997 6.27889 18.8281 6.10089 18.6106 6.08444H18.6106ZM10.5681 2.57818H14.432V4.96036L10.5681 4.9602V2.57818Z" fill="#202125"/>
</svg>

<svg width="25" height="25" viewBox="0 0 25 25" fill="none" xmlns="http://www.w3.org/2000/svg"><path d="M18.61 6.084v-.443a.681.681 0 00-.68-.68h-.319a.29.29 0 00-.289-.282h-1.42a.29.29 0 00-.289.281h-.612V2H10v2.96h-.613a.289.289 0 00-.288-.28h-1.42a.29.29 0 00-.29.28H7.07a.681.681 0 00-.68.681v.443a.417.417 0 00-.39.412v13.113c0 .217.172.395.39.412v.442c0 .376.304.682.68.682h1.632v.378a.855.855 0 10.463 0v-.378h6.67v.378a.855.855 0 10.463 0v-.378h1.632a.681.681 0 00.68-.682v-.442a.417.417 0 00.39-.412V6.496a.417.417 0 00-.39-.412zm-8.042-3.506h3.864V4.96h-3.864V2.578z" fill="#202125"/></svg>
